usr/share/icons/biglinux-icons-material/16/actions/debug-execute-to-cursor.svg

<svg xmlns="http://www.w3.org/2000/svg" viewBox="0 0 16 16"><path d="M9 2v1h2v10H9v1h5v-1h-2V3h2V2H9zM2 5v6h1V9h3v2l3-3-3-3v2H3V5H2z" style="fill:currentColor;fill-opacity:1;stroke:none;color:#dedede"/></svg>

<svg xmlns="http://www.w3.org/2000/svg" viewBox="0 0 16 16">
  <defs id="defs3051">
    <style type="text/css" id="current-color-scheme">
      .ColorScheme-Text {
        color:#dedede;
      }
      </style>
  </defs>
 <path style="fill:currentColor;fill-opacity:1;stroke:none" 
       d="M 9 2 L 9 3 L 11 3 L 11 13 L 9 13 L 9 14 L 14 14 L 14 13 L 12 13 L 12 3 L 14 3 L 14 2 L 9 2 z M 2 5 L 2 11 L 3 11 L 3 9 L 6 9 L 6 11 L 9 8 L 6 5 L 6 7 L 3 7 L 3 5 L 2 5 z "
     class="ColorScheme-Text"
     />
</svg>
